picto/cash-machine-framed.svg

<svg class="color-immutable" width="30" height="30" viewBox="0 0 30 30" fill="none" xmlns="http://www.w3.org/2000/svg"><path d="M30 -6.10352e-05H0V29.9999H30V-6.10352e-05Z" fill="#2D327D"/><path d="M25.4999 2.99994C26.3249 2.99994 26.9999 3.67494 26.9999 4.49994V25.4999C26.9999 26.3249 26.3249 26.9999 25.4999 26.9999H4.5C3.675 26.9999 3 26.3249 3 25.4999V4.49994C3 3.67494 3.675 2.99994 4.5 2.99994H25.4999ZM25.4999 2.62494H4.5C3.46613 2.62494 2.625 3.46606 2.625 4.49994V25.4999C2.625 26.5338 3.46613 27.3749 4.5 27.3749H25.5C26.5339 27.3749 27.375 26.5338 27.375 25.4999V4.49994C27.3749 3.46606 26.5339 2.62494 25.4999 2.62494Z" fill="white"/><path d="M23.6249 6.375V7.875H19.8749V8.25H23.9999V6H6V8.25H10.1249V7.875H6.375V6.375H23.6249Z" fill="white"/><path d="M16.0349 10.6874C15.8159 10.6874 15.303 10.6874 15.303 11.0648C15.303 11.4357 15.8159 11.4357 16.0349 11.4357C16.2718 11.4357 16.7848 11.4357 16.7848 11.0648C16.7848 10.6874 16.2719 10.6874 16.0349 10.6874Z" fill="white"/><path d="M16.0349 12.6467C15.8159 12.6467 15.303 12.6467 15.303 13.0241C15.303 13.3949 15.8159 13.3949 16.0349 13.3949C16.2718 13.3949 16.7848 13.3949 16.7848 13.0241C16.7848 12.6467 16.2719 12.6467 16.0349 12.6467Z" fill="white"/><path d="M13.2144 16.5358H11.25V16.9108H13.2144V16.5457V16.5358Z" fill="white"/><path d="M18.75 16.9108V7.12494H18.375V16.5358H15.2975V16.9108H18.75Z" fill="white"/><path d="M13.2145 17.2858H12V17.6608H13.2145V17.2858Z" fill="white"/><path d="M19.5 7.12494H19.125V17.2858H15.2975V17.6608H19.5V7.12494Z" fill="white"/><path d="M14.0681 15.3032C14.1487 15.2727 14.2343 15.2562 14.3225 15.2541C14.3414 15.2533 14.3595 15.2532 14.3775 15.2532C14.8801 15.2532 15.2894 15.6592 15.2968 16.1608H18V7.125H10.5V16.1608H13.2683C13.3832 15.7717 13.6758 15.4477 14.0681 15.3032ZM17.0937 14.677H15.732V15.2497H15.4111C15.417 14.9275 15.3151 14.6315 14.9941 14.5826V14.215H17.0937V14.677ZM16.0349 10.2254C16.8717 10.2254 17.1357 10.6094 17.1357 11.0648C17.1357 11.5138 16.8717 11.8977 16.0349 11.8977C15.216 11.8977 14.952 11.5138 14.952 11.0648C14.9521 10.6094 15.216 10.2254 16.0349 10.2254ZM16.0349 12.1846C16.8717 12.1846 17.1357 12.5686 17.1357 13.0241C17.1357 13.473 16.8717 13.8569 16.0349 13.8569C15.216 13.8569 14.952 13.473 14.952 13.0241C14.9521 12.5686 15.216 12.1846 16.0349 12.1846Z" fill="white"/><path d="M6.17305 21.3843L8.7901 23.9999H15V16.1744C15 15.8288 14.7201 15.5507 14.3775 15.5507C14.3628 15.5507 14.3481 15.5507 14.3325 15.5515C14.2771 15.5525 14.2228 15.5627 14.1723 15.582C13.7754 15.7275 13.512 16.1053 13.512 16.5272V16.5457V18.7181C13.512 18.9852 13.2948 19.2027 13.0287 19.2027H11.768C11.571 19.2027 11.3821 19.1235 11.2431 18.9833L7.18938 14.9312C6.92095 14.6605 6.48453 14.6605 6.21528 14.9297C5.94603 15.199 5.94603 15.6355 6.21528 15.9047L10.5258 20.2142L10.2891 20.451L6.43743 16.599L6.17305 16.8608C6.06258 16.9731 5.99995 17.1243 5.99995 17.2817C5.99995 17.4402 6.06258 17.5913 6.17305 17.7027L9.6196 21.1484L9.38208 21.3843L6.43735 18.4398L6.17298 18.7015C6.0625 18.814 5.99988 18.9649 5.99988 19.1225C5.99988 19.281 6.0625 19.432 6.17298 19.5437L8.69785 22.0679L8.4622 22.3046L6.43735 20.2805L6.17298 20.5421C6.0625 20.6546 5.99988 20.8057 5.99988 20.9633C5.99995 21.1217 6.06265 21.2729 6.17305 21.3843Z" fill="white"/></svg>

<svg class="color-immutable" width="30" height="30" viewBox="0 0 30 30" fill="none" xmlns="http://www.w3.org/2000/svg"><g clip-path="url(#a)"><path d="M30 0H0v30h30V0Z" fill="#2D327D"/><path d="M25.5 3c.825 0 1.5.675 1.5 1.5v21c0 .825-.675 1.5-1.5 1.5h-21c-.825 0-1.5-.675-1.5-1.5v-21C3 3.675 3.675 3 4.5 3h21Zm0-.375h-21A1.877 1.877 0 0 0 2.625 4.5v21c0 1.034.841 1.875 1.875 1.875h21a1.877 1.877 0 0 0 1.875-1.875v-21A1.877 1.877 0 0 0 25.5 2.625Z" fill="#fff"/><path d="M23.625 6.375v1.5h-3.75v.375H24V6H6v2.25h4.125v-.375h-3.75v-1.5h17.25ZM16.035 10.687c-.22 0-.732 0-.732.378 0 .37.513.37.732.37.237 0 .75 0 .75-.37 0-.378-.513-.378-.75-.378ZM16.035 12.647c-.22 0-.732 0-.732.377 0 .37.513.37.732.37.237 0 .75 0 .75-.37 0-.377-.513-.377-.75-.377ZM13.214 16.536H11.25v.375h1.964v-.375Z" fill="#fff"/><path d="M18.75 16.91V7.126h-.375v9.41h-3.078v.376h3.453ZM13.214 17.286H12v.375h1.214v-.375Z" fill="#fff"/><path d="M19.5 7.125h-.375v10.16h-3.828v.376H19.5V7.125Z" fill="#fff"/><path d="M14.068 15.303a.769.769 0 0 1 .31-.05c.502 0 .911.406.919.908H18V7.125h-7.5v9.036h2.768a1.31 1.31 0 0 1 .8-.858Zm3.026-.626h-1.362v.573h-.32c.005-.322-.097-.618-.418-.667v-.368h2.1v.462Zm-1.06-4.452c.838 0 1.102.384 1.102.84 0 .449-.264.833-1.101.833-.819 0-1.083-.384-1.083-.833 0-.456.264-.84 1.083-.84Zm0 1.96c.838 0 1.102.384 1.102.84 0 .448-.264.832-1.101.832-.819 0-1.083-.384-1.083-.833 0-.455.264-.84 1.083-.84Z" fill="#fff"/><path d="M6.173 21.384 8.79 24H15v-7.826a.623.623 0 0 0-.623-.623h-.045a.473.473 0 0 0-.16.031c-.397.145-.66.523-.66.945V18.718a.485.485 0 0 1-.483.485h-1.261a.74.74 0 0 1-.525-.22L7.19 14.931a.69.69 0 1 0-.974.973l4.31 4.31-.236.237-3.852-3.852-.264.262a.601.601 0 0 0 0 .842l3.447 3.445-.238.236-2.945-2.944-.264.261a.601.601 0 0 0 0 .843l2.525 2.524-.236.237-2.025-2.024-.264.261a.602.602 0 0 0 0 .842Z" fill="#fff"/></g><defs><clipPath id="a"><path fill="#fff" d="M0 0h30v30H0z"/></clipPath></defs></svg>
